16x16/apps/system-suspend.svg

<svg height="16" width="16" xmlns="http://www.w3.org/2000/svg">
    <path d="M8 0c4.432 0 8 3.568 8 8s-3.568 8-8 8-8-3.568-8-8 3.568-8 8-8z" fill="#66798f"/>
    <path d="M8 1c3.878 0 7 3.122 7 7s-3.122 7-7 7-7-3.122-7-7 3.122-7 7-7z" fill="#b0c1d4"/>
    <path d="M8 2C4.676 2 2 4.676 2 8s2.676 6 6 6 6-2.676 6-6-2.676-6-6-6zm0 2c2.216 0 4 1.784 4 4H4c0-2.216 1.784-4 4-4zm-3.45 6h6.9a3.975 3.975 0 0 1-6.898 0z" fill="#66798f"/>
</svg>

<?xml version="1.0" encoding="UTF-8" standalone="no"?>
<svg
   xmlns:dc="http://purl.org/dc/elements/1.1/"
   xmlns:cc="http://creativecommons.org/ns#"
   xmlns:rdf="http://www.w3.org/1999/02/22-rdf-syntax-ns#"
   xmlns:svg="http://www.w3.org/2000/svg"
   xmlns="http://www.w3.org/2000/svg"
   xmlns:sodipodi="http://sodipodi.sourceforge.net/DTD/sodipodi-0.dtd"
   xmlns:inkscape="http://www.inkscape.org/namespaces/inkscape"
   height="16"
   viewBox="0 0 16 16"
   width="16"
   version="1.1"
   id="svg6"
   sodipodi:docname="system-suspend.svg"
   inkscape:version="0.92.3 (2405546, 2018-03-11)">
  <metadata
     id="metadata10">
    <rdf:RDF>
      <cc:Work
         rdf:about="">
        <dc:format>image/svg+xml</dc:format>
        <dc:type
           rdf:resource="http://purl.org/dc/dcmitype/StillImage" />
        <dc:title />
      </cc:Work>
    </rdf:RDF>
  </metadata>
  <sodipodi:namedview
     pagecolor="#ffffff"
     bordercolor="#666666"
     borderopacity="1"
     objecttolerance="10"
     gridtolerance="10"
     guidetolerance="10"
     inkscape:pageopacity="0"
     inkscape:pageshadow="2"
     inkscape:window-width="1874"
     inkscape:window-height="1141"
     id="namedview8"
     showgrid="true"
     showguides="false"
     inkscape:zoom="32"
     inkscape:cx="12.771598"
     inkscape:cy="4.1382707"
     inkscape:window-x="46"
     inkscape:window-y="30"
     inkscape:window-maximized="1"
     inkscape:current-layer="svg6"
     inkscape:snap-bbox="true"
     inkscape:bbox-paths="true"
     inkscape:bbox-nodes="true"
     inkscape:snap-bbox-edge-midpoints="true"
     inkscape:snap-bbox-midpoints="true"
     inkscape:object-paths="true"
     inkscape:snap-intersection-paths="true">
    <inkscape:grid
       type="xygrid"
       id="grid868" />
  </sodipodi:namedview>
  <defs
     id="defs2">
    <style
       type="text/css"
       id="current-color-scheme">
      .ColorScheme-Text {
        color:#122036;
      }
      </style>
    <style
       id="current-color-scheme-5"
       type="text/css">
      .ColorScheme-Text {
        color:#122036;
      }
      </style>
    <style
       id="current-color-scheme-2"
       type="text/css">
      .ColorScheme-Text {
        color:#122036;
      }
      </style>
    <style
       id="current-color-scheme-1"
       type="text/css">
      .ColorScheme-Text {
        color:#122036;
      }
      </style>
    <style
       type="text/css"
       id="current-color-scheme-10">
      .ColorScheme-Text {
        color:#122036;
      }
      </style>
    <style
       id="current-color-scheme-0"
       type="text/css">
      .ColorScheme-Text {
        color:#122036;
      }
      </style>
    <style
       id="current-color-scheme-26"
       type="text/css">
      .ColorScheme-Text {
        color:#122036;
      }
      </style>
    <style
       id="current-color-scheme-7"
       type="text/css">
      .ColorScheme-Text {
        color:#122036;
      }
      </style>
    <style
       id="current-color-scheme-3"
       type="text/css">
      .ColorScheme-Text {
        color:#122036;
      }
      </style>
    <style
       id="current-color-scheme-56"
       type="text/css">
      .ColorScheme-Text {
        color:#122036;
      }
      </style>
  </defs>
  <path
     style="opacity:1;vector-effect:none;fill:#66798f;fill-opacity:1;stroke:none;stroke-width:1.98768997;stroke-linecap:round;stroke-linejoin:round;stroke-miterlimit:4;stroke-dasharray:none;stroke-dashoffset:0;stroke-opacity:1"
     d="m 8,0 c 4.432,0 8,3.568 8,8 0,4.432 -3.568,8 -8,8 C 3.568,16 0,12.432 0,8 0,3.568 3.568,0 8,0 Z"
     id="rect843" />
  <path
     style="opacity:1;vector-effect:none;fill:#b0c1d4;fill-opacity:1;stroke:none;stroke-width:1.73922873;stroke-linecap:round;stroke-linejoin:round;stroke-miterlimit:4;stroke-dasharray:none;stroke-dashoffset:0;stroke-opacity:1"
     d="m 8,1 c 3.878,0 7,3.122 7,7 0,3.878 -3.122,7 -7,7 C 4.122,15 1,11.878 1,8 1,4.122 4.122,1 8,1 Z"
     id="rect843-6" />
  <path
     style="color:#122036;fill:#66798f;fill-opacity:1;stroke:none;stroke-width:0.85714287"
     d="M 8 2 C 4.676 2 2 4.6759997 2 8 C 2 11.324 4.676 14 8 14 C 11.324 14 14 11.324 14 8 C 14 4.6759997 11.324 2 8 2 z M 8 4 C 10.216 4 12 5.784 12 8 L 4 8 C 4 5.784 5.784 4 8 4 z M 4.5507812 10 L 11.449219 10 C 10.75838 11.192708 9.4829714 12 8 12 C 6.5170286 12 5.2416195 11.192708 4.5507812 10 z "
     id="path1252" />
</svg>
